icons/svg/pinterest-box.svg

﻿<?xml version="1.0" encoding="utf-8"?>
<!DOCTYPE svg PUBLIC "-//W3C//DTD SVG 1.1//EN" "http://www.w3.org/Graphics/SVG/1.1/DTD/svg11.dtd">
<svg xmlns="http://www.w3.org/2000/svg" xmlns:xlink="http://www.w3.org/1999/xlink" version="1.1" baseProfile="full" width="24" height="24" viewBox="0 0 24.00 24.00" enable-background="new 0 0 24.00 24.00" xml:space="preserve">
	<path fill="#000000" fill-opacity="1" stroke-width="0.2" stroke-linejoin="round" d="M 12.9994,16.1983C 12.1974,16.1983 11.4314,15.8593 10.8834,15.2783L 9.9314,18.4783L 9.8634,18.6853L 9.8314,18.6743C 9.6354,18.9983 9.2874,19.1983 8.8994,19.1983C 8.2934,19.1983 7.7994,18.7053 7.7994,18.0973C 7.7994,18.0463 7.8054,17.9983 7.8134,17.9523L 7.7964,17.9453L 7.8504,17.7673L 9.6994,12.2053C 9.6994,12.2053 9.4994,11.5923 9.4994,10.7323C 9.4994,9.01327 10.4214,8.49827 11.1634,8.49827C 11.9054,8.49827 12.5804,8.76327 12.5804,9.81027C 12.5804,11.1543 11.6914,11.8423 11.6914,12.8133C 11.6914,13.5533 12.2944,14.1553 13.0346,14.1553C 15.3684,14.1553 16.1994,12.3953 16.1994,10.7483C 16.1994,8.57027 14.3154,6.79827 11.9994,6.79827C 9.6834,6.79827 7.7994,8.57027 7.7994,10.7483C 7.8004,11.4223 7.9874,12.0923 8.3414,12.6833C 8.4344,12.8393 8.4834,13.0153 8.4834,13.1983C 8.4834,13.7503 8.03456,14.1983 7.4834,14.1983C 7.1274,14.1983 6.7944,14.0083 6.6164,13.7033C 6.08241,12.8073 5.7994,11.7853 5.7994,10.7483C 5.7994,7.46727 8.5804,4.79827 11.9994,4.79827C 15.4184,4.79827 18.1994,7.46727 18.1994,10.7483C 18.1994,13.3733 16.5714,16.1983 12.9994,16.1983 Z M 19.9994,1.99827L 3.9994,1.99827C 2.8944,1.99827 2.0094,2.89327 2.0094,3.99827L 1.9994,19.9983C 1.9994,21.1023 2.8944,21.9983 3.9994,21.9983L 19.9994,21.9983C 21.1034,21.9983 21.9994,21.1023 21.9994,19.9983L 21.9994,3.99827C 21.9994,2.89327 21.1034,1.99827 19.9994,1.99827 Z "/>
</svg>

<svg xmlns="http://www.w3.org/2000/svg" version="1.1" baseProfile="full" width="24" height="24" viewBox="0 0 24.00 24.00" xml:space="preserve"><path fill="#000" fill-opacity="1" stroke-width=".2" stroke-linejoin="round" d="M13 16.198c-.803 0-1.57-.34-2.117-.92l-.952 3.2-.067.207-.032-.01c-.195.323-.543.523-.93.523-.607 0-1.1-.493-1.1-1.1 0-.052.005-.1.013-.146l-.017-.007.054-.178 1.85-5.562s-.2-.613-.2-1.473c0-1.72.92-2.234 1.663-2.234.742 0 1.417.265 1.417 1.312 0 1.344-.89 2.032-.89 3.003 0 .74.604 1.342 1.345 1.342 2.333 0 3.164-1.76 3.164-3.407 0-2.178-1.885-3.95-4.2-3.95-2.317 0-4.2 1.772-4.2 3.95 0 .674.187 1.344.54 1.935.094.156.143.332.143.515 0 .552-.448 1-1 1-.356 0-.69-.19-.867-.495-.534-.896-.817-1.918-.817-2.955 0-3.28 2.78-5.95 6.2-5.95 3.418 0 6.2 2.67 6.2 5.95 0 2.625-1.63 5.45-5.2 5.45zm7-14.2H4c-1.106 0-1.99.895-1.99 2l-.01 16c0 1.104.894 2 2 2h16c1.103 0 2-.896 2-2v-16c0-1.105-.897-2-2-2z"/></svg>
